X: 150102
M: 3/4
L: 1/4
K: G
|:\
d2B | d2B | d>cc | c3 |\
a>aa | aba | g>gg | gfe |\
d2B | d2B | d>cc | c3 |\
a>aa | aba | g>gg |[1 g2z :|[2 g2 ||
|:ud |\
f>ed | c>BA | GBd | (e2d) |\
f>ed | cBA | GBd | (e2d) |\
[K:=f]
K: C
|: "^TRIO."\
f2A | B2d | c2A | G3 |\
f2A | B2d | c>cc | "_D.C."c3 :|


